X:2499
T:Canción de Ronda (CT 410)
C:Trad.
Z:Cancioneru de Torner 410
M:3/4
L:1/8
Q:1/4=100
W:No te laves, ni te peines,
W:ni te pongas al balcón,
W:que la niña que yo quiero,
W:la traigo en el corazón.
W:He de quererla,
W:he de adorarla,
W:he de traerla
W:en el corazón.
K:Cm
GGGGG=B|d2c2fe|d4ed/c/|
[1 (B3/2A/2G4):|[2(B3/2A/2G2)ed/c/||
d(c/=B/c2)ed/c/|d(c/=B/c2)c_B/A/|(G3/2A/2)B2cB/A/|G4 z2||


